Obsidian/actions/16s/view-split-top-bottom.svg

<svg height="16" viewBox="0 0 16 16" width="16" xmlns="http://www.w3.org/2000/svg"><path d="m0 1v14c5.3333-.002 10.667.005906 16 .003906v-13.9999998c-5.333.0019001-10.667-.0059062-16-.0039062zm2 2h12v4h-12zm0 6h12v4.005859h-5v-.005859h-2v.003906l-5 .001953z" fill="#bebebe"/></svg>

<svg xmlns="http://www.w3.org/2000/svg" width="16" height="16" viewBox="0 0 16 16">
 <defs>
  <style id="current-color-scheme" type="text/css">
   .ColorScheme-Text { color:#bebebe; } .ColorScheme-Highlight { color:#4285f4; }
  </style>
 </defs>
 <path style="fill:currentColor" class="ColorScheme-Text" d="M 0 1 L 0 15 C 5.3333 14.998 10.667 15.005906 16 15.003906 L 16 1.0039062 C 10.667 1.0058063 5.333 0.998 0 1 z M 2 3 L 14 3 L 14 7 L 2 7 L 2 3 z M 2 9 L 14 9 L 14 13.005859 L 9 13.005859 L 9 13 L 7 13 L 7 13.003906 L 2 13.005859 L 2 9 z"/>
</svg>
